epam-assets/icon-sources/18/internal-logo/autoint.svg

<svg width="18" height="18" viewBox="0 0 18 18" fill="none" xmlns="http://www.w3.org/2000/svg">
<g id="18/internal-logo/autoint">
<path id="icon" fill-rule="evenodd" clip-rule="evenodd" d="M7.65965 13.419C7.49854 13.3708 7.33753 13.3127 7.18142 13.2466C7.01766 13.1771 6.85655 13.0974 6.70248 13.0096C6.40696 12.8419 6.29354 12.4714 6.44487 12.1665C6.54331 11.9669 6.5056 11.7255 6.35061 11.5666C6.20794 11.4202 5.94025 11.3717 5.75336 11.4586C5.44408 11.6012 5.07703 11.4783 4.91694 11.179C4.75247 10.872 4.62305 10.5462 4.53236 10.2109C4.44462 9.88952 4.62234 9.54957 4.93732 9.43778C5.14612 9.3637 5.28817 9.16723 5.29082 8.94886C5.29327 8.73292 5.1666 8.53707 4.97564 8.46166L4.96616 8.45768C4.69235 8.34162 4.4596 8.00626 4.5611 7.66672C4.66218 7.3282 4.80108 7.00272 4.97411 6.69925C5.14347 6.40455 5.4879 6.29358 5.79697 6.43227C6.0235 6.52653 6.26654 6.49341 6.41705 6.34728C6.57561 6.1927 6.61932 5.95241 6.52547 5.74942C6.38332 5.44086 6.50621 5.07411 6.80489 4.91402C7.11264 4.74843 7.44188 4.61749 7.78305 4.52537C7.8285 4.51324 7.87415 4.50692 7.9196 4.50488L3.28731 2.09784C3.24808 2.07746 3.20294 2.06941 3.15953 2.07766C2.97233 2.11323 2.83069 2.27902 2.83069 2.47824V15.5218C2.83069 15.721 2.97233 15.8868 3.15953 15.9223C3.20294 15.9305 3.24808 15.9225 3.28731 15.9021L8.00072 13.4528C7.8983 13.4752 7.78886 13.4578 7.65965 13.419ZM10.6667 9.70989C10.4775 10.1556 10.1256 10.5012 9.67577 10.683C9.45566 10.7718 9.22515 10.8162 8.99485 10.8162C8.75457 10.8162 8.51469 10.7679 8.28714 10.6713C7.36604 10.2804 6.93479 9.21301 7.32569 8.29181C7.71689 7.37061 8.78412 6.93926 9.70532 7.33046C10.6263 7.72136 11.0577 8.78879 10.6667 9.70989ZM12.6259 7.83847C12.5698 7.66044 12.501 7.48731 12.4201 7.32131C11.95 7.46632 11.3975 7.33609 11.0524 6.98289C10.7775 6.70011 10.6477 6.31686 10.6782 5.93829L10.0748 5.62484C9.82376 5.92117 9.45089 6.10256 9.05184 6.10256L9.03503 6.10245C8.54661 6.09573 8.07337 5.78931 7.85204 5.35418C7.67147 5.41064 7.49538 5.48054 7.32602 5.56298C7.47908 6.04203 7.3517 6.57477 6.98567 6.93133C6.63155 7.27586 6.10553 7.38744 5.61222 7.23174C5.5254 7.39906 5.4505 7.57423 5.38875 7.7548C5.82815 7.98042 6.11195 8.44927 6.10594 8.95858C6.09983 9.46208 5.80665 9.91911 5.36134 10.1416C5.41698 10.3189 5.48566 10.4918 5.56667 10.6589C6.03767 10.5134 6.59028 10.644 6.93441 10.9977C7.29086 11.3629 7.40489 11.8985 7.24002 12.374C7.3251 12.418 7.41203 12.4588 7.49987 12.496C7.5822 12.5311 7.66627 12.5632 7.75106 12.5922C7.98136 12.1581 8.43788 11.8775 8.93496 11.8775L8.95147 11.8776C9.35612 11.8832 9.74988 12.0947 9.99923 12.4144L10.6015 12.1015C10.5748 11.7159 10.7143 11.328 11.0011 11.0487C11.3609 10.6979 11.9036 10.5807 12.3774 10.7436C12.4636 10.5769 12.5378 10.4026 12.5992 10.2232C12.1531 9.98678 11.8747 9.52689 11.8812 9.02105C11.8879 8.51765 12.1811 8.06092 12.6259 7.83847ZM16.2209 8.81842L13.2993 7.30038C13.359 7.45313 13.4114 7.60915 13.4546 7.76822C13.5428 8.09094 13.3648 8.43109 13.0493 8.54247C12.8413 8.61625 12.6992 8.81282 12.6964 9.03171C12.6937 9.24468 12.8231 9.4382 13.0262 9.52451C13.3369 9.65647 13.5163 10.0102 13.4261 10.3131L13.426 10.3133C13.3864 10.4466 13.339 10.577 13.2877 10.7057L16.2209 9.1815C16.3673 9.10538 16.3673 8.89444 16.2209 8.81842ZM11.7831 6.51254L11.7329 6.48646C11.7492 6.49583 11.7657 6.5048 11.7831 6.51254ZM8.99757 8.0015C9.1276 8.0015 9.25976 8.02697 9.38684 8.08088C9.89411 8.2962 10.1316 8.88418 9.91632 9.39145C9.7009 9.89872 9.11333 10.1365 8.60565 9.92104C8.09838 9.70562 7.86085 9.11774 8.07617 8.61037C8.23768 8.23007 8.6083 8.0015 8.99757 8.0015Z" fill="#6C6F80"/>
</g>
</svg>

<svg xmlns="http://www.w3.org/2000/svg" width="18" height="18" fill="none" viewBox="0 0 18 18">
  <path fill="#6C6F80" fill-rule="evenodd" d="M7.66 13.419a4.651 4.651 0 0 1-.958-.41.642.642 0 0 1-.257-.843.527.527 0 0 0-.094-.6.562.562 0 0 0-.598-.107.643.643 0 0 1-.836-.28 4.592 4.592 0 0 1-.385-.968.644.644 0 0 1 .405-.773.53.53 0 0 0 .354-.49.515.515 0 0 0-.315-.486l-.01-.004c-.274-.116-.506-.452-.405-.791a4.63 4.63 0 0 1 .413-.968.633.633 0 0 1 .823-.267c.227.095.47.061.62-.085a.527.527 0 0 0 .108-.598.643.643 0 0 1 .28-.835c.308-.166.637-.297.978-.389a.639.639 0 0 1 .137-.02L3.287 2.098a.198.198 0 0 0-.127-.02.407.407 0 0 0-.33.4v13.044c0 .199.142.365.33.4a.2.2 0 0 0 .127-.02l4.714-2.45a.68.68 0 0 1-.341-.033Zm3.007-3.71a1.817 1.817 0 0 1-2.38.961 1.817 1.817 0 0 1-.961-2.378 1.817 1.817 0 0 1 2.38-.962 1.817 1.817 0 0 1 .96 2.38Zm1.959-1.87a3.762 3.762 0 0 0-.206-.518 1.385 1.385 0 0 1-1.368-.338 1.343 1.343 0 0 1-.374-1.045l-.603-.313a1.345 1.345 0 0 1-1.023.478h-.017a1.388 1.388 0 0 1-1.183-.749 3.78 3.78 0 0 0-.526.209 1.343 1.343 0 0 1-.34 1.368c-.354.345-.88.456-1.374.3a3.821 3.821 0 0 0-.223.524 1.339 1.339 0 0 1-.028 2.387c.056.177.125.35.206.517a1.382 1.382 0 0 1 1.367.339c.357.365.47.9.306 1.376a3.75 3.75 0 0 0 .511.218c.23-.434.687-.715 1.184-.715h.016c.405.006.799.218 1.048.537l.602-.313a1.34 1.34 0 0 1 .4-1.052c.36-.351.903-.468 1.376-.305.087-.167.16-.341.222-.52a1.34 1.34 0 0 1-.718-1.203c.007-.503.3-.96.745-1.183Zm3.595.98L13.299 7.3c.06.153.112.31.156.468a.644.644 0 0 1-.406.774.53.53 0 0 0-.353.49.53.53 0 0 0 .33.493c.31.131.49.485.4.788-.04.134-.087.264-.138.393l2.933-1.524a.205.205 0 0 0 0-.364Zm-4.438-2.306-.05-.027c.016.01.033.019.05.027ZM8.998 8.002a1 1 0 1 1-.392 1.92 1 1 0 0 1 .392-1.92Z" clip-rule="evenodd"/>
</svg>
